wave.svg

<svg fill="currentColor" viewBox="0 0 24 24"><path d="M20 12c-1.39 0-2.78-.47-4-1.33-2.44 1.71-5.56 1.71-8 0C6.78 11.53 5.39 12 4 12H2v2h2c1.37 0 2.74-.35 4-1 2.5 1.3 5.5 1.3 8 0 1.26.65 2.62 1 4 1h2v-2"/></svg>

<svg  viewBox="0 0 24 24" fill="currentColor"><path  d="M20,12C18.61,12 17.22,11.53 16,10.67C13.56,12.38 10.44,12.38 8,10.67C6.78,11.53 5.39,12 4,12H2V14H4C5.37,14 6.74,13.65 8,13C10.5,14.3 13.5,14.3 16,13C17.26,13.65 18.62,14 20,14H22V12"/></svg>
